Yaru++/mimetypes/scalable/application-msaccess.svg

<svg height="256" viewBox="0 0 67.73 67.73" width="256" xmlns="http://www.w3.org/2000/svg" xmlns:xlink="http://www.w3.org/1999/xlink"><linearGradient id="a" gradientUnits="userSpaceOnUse" x1="48.50461" x2="41.783234" y1="11.951899" y2="18.809672"><stop offset="0" stop-color="#dd5d61"/><stop offset="1" stop-color="#e16f72"/></linearGradient><filter id="b" color-interpolation-filters="sRGB" height="1.072" width="1.072" x="-.036" y="-.036"><feGaussianBlur stdDeviation=".99"/></filter><radialGradient id="c" cx="179.99261" cy="103.2822" gradientTransform="matrix(1.3687341 -.00000021 .0000002 1.3528551 -121.02851 -70.900578)" gradientUnits="userSpaceOnUse" r="35.068905"><stop offset="0"/><stop offset="1" stop-opacity="0"/></radialGradient><filter id="d" color-interpolation-filters="sRGB" height="1.144" width="1.144" x="-.072" y="-.072"><feGaussianBlur stdDeviation="1.98"/></filter><linearGradient id="e" gradientTransform="matrix(0 -.11988342 .11987999 0 .362762 62.749399)" gradientUnits="userSpaceOnUse" x1="494.34482" x2="-2.206897" y1="169.68051" y2="386.30795"><stop offset="0" stop-color="#b52428"/><stop offset="1" stop-color="#d32429"/></linearGradient><linearGradient id="f" gradientUnits="userSpaceOnUse" x1="88" x2="488" y1="88" y2="488"><stop offset="0" stop-opacity=".588235"/><stop offset=".88" stop-opacity="0"/><stop offset="1"/></linearGradient><filter id="g" color-interpolation-filters="sRGB" height="1.087725" width="1.105998" x="-.052999" y="-.043863"><feGaussianBlur stdDeviation="8.4801079"/></filter><filter id="h" color-interpolation-filters="sRGB" height="1.021931" width="1.0265" x="-.01325" y="-.010966"><feGaussianBlur stdDeviation="2.120027"/></filter><path d="m189.84323 74c-70.59344 0-78.18921 7.250835-77.84323 77.98706v146.01294 146.01294c-.34598 70.73623 7.24979 77.98706 77.84323 77.98706h196.31354c70.59344 0 76.00668-7.27384 77.84323-77.98706v-146.01294-98l-128-126z" filter="url(#h)" opacity=".1" transform="matrix(.13228516 0 0 .13228516 -4.409451 -6.038882)"/><path d="m189.84323 74c-70.59344 0-78.18921 7.250835-77.84323 77.98706v146.01294 146.01294c-.34598 70.73623 7.24979 77.98706 77.84323 77.98706h196.31354c70.59344 0 77.84323-7.24999 77.84323-77.98706v-146.01294-96l-128-128z" fill="url(#f)" filter="url(#g)" opacity=".3" transform="matrix(.13228516 0 0 .13228516 -4.409451 -6.038882)"/><path d="m20.703991 3.4856502c-9.338465 0-10.343273.9591779-10.297505 10.3165308v19.315344 19.315344c-.04577 9.357355.95904 10.316531 10.297505 10.316531h25.969365c9.338465 0 10.297506-.959068 10.297506-10.316531v-19.315344-12.699376l-16.9325-16.9324988z" fill="url(#e)"/><g fill="#fff"><path d="m20.70406 3.4856502c-9.338466 0-10.343342.9593396-10.297574 10.3166918v.529141c-.045768-9.3573526.959108-10.3166922 10.297574-10.3166922h19.334302v-.5291406z" opacity=".4"/><path d="m34.358298 24.651362c-5.160602.919008-10.323996 2.138312-15.484599 3.040492 0 7.85031-.0034 15.703931 0 23.557608 5.133672.898812 10.27008 2.097934 15.393653 3.033775h1.537816v-29.631875zm6.085634 4.100324c-1.199599.01177-2.399174.111159-3.580483.27387v4.38143c3.319476.500919 6.780241.398901 9.979777-.680546.6773-.296319 1.534164-.666792 1.675268-1.488724-.190491-1.005367-1.318936-1.383015-2.162035-1.69697-1.913724-.584261-3.913196-.808696-5.912527-.78906zm8.071463 4.189717c-1.255827 1.008894-2.875273 1.344176-4.42742 1.573471-2.395242.313947-4.829284.317334-7.224526.01394v4.57159c2.991409.384508 6.063793.367327 9.009341-.327612.903069-.257515 1.905232-.526001 2.536672-1.277378.225765-1.502762.02833-3.037153.105933-4.554022zm-20.322826 1.029861c1.181746 3.950919 2.303815 7.923317 3.471454 11.87776-.814877-.05291-1.630153-.112979-2.437976-.187059-.215183-.881903-.444105-1.763713-.676927-2.642087-1.082974-.0035-2.166191-.03906-3.245637-.09198-.20813.836042-.419889 1.668499-.635072 2.501014-.69141-.05291-1.379073-.101928-2.066956-.147786 1.03006-3.714567 2.102231-7.414956 3.125237-11.129523.821933-.05997 1.640418-.116845 2.465877-.180342zm-1.326468 2.113462c-.236349 1.675611-.765553 3.287556-1.121839 4.938475.776072.007 1.55244.01042 2.332042.01394-.402147-1.650918-.892721-3.280341-1.210203-4.952425zm21.649294 2.501017c-1.248771 1.005368-2.857616 1.340557-4.406233 1.569852-2.402298.317495-4.843415.324475-7.245713.01757v4.575206c2.998463.380981 6.08154.36353 9.034145-.338465.899539-.257514 1.901255-.525569 2.518588-1.280478.208126-1.502756.02866-3.030343.09921-4.543685zm0 5.643822c-1.255827 1.005367-2.86804 1.344084-4.420186 1.569852-2.398769.317495-4.832988.324474-7.23176.01757 0 1.520398.01074 3.037238-.01394 4.557636 2.51871.363342 5.090182.356606 7.605362-.0279 1.372239-.27868 2.95629-.479732 3.954601-1.566235.222242-1.50276.03186-3.037577.105934-4.550919z" stroke-width=".35276"/><path d="m33.688674 3.4856502v59.2637498h12.984614c9.338464 0 10.054627-.962123 10.297574-10.316435v-19.31544-12.699376l-16.9325-16.9324988z" opacity=".075"/><path d="m10.406486 33.117525v19.31544c-.04577 9.357354.959108 10.316435 10.297574 10.316435h25.969228c9.338464 0 10.054627-.962123 10.297574-10.316435v-19.31544z" opacity=".075"/><path d="m41.096643 62.7494 15.874219-15.874219v5.948567c-.01384 8.994282-1.006077 9.925652-10.099734 9.925652z" opacity=".075"/></g><path d="m185.33354 74.825228-64-65.9999998.003 24.9985698v1 .53711c0 35.29429 1.62603 39.63197 36.99414 39.45899z" fill="url(#c)" filter="url(#d)" opacity=".1" transform="matrix(.26457031 0 0 .26457031 7.937109 1.150757)"/><path d="m185.33354 74.825228v-2l-64-63.9999998v24.9990938 1 .53711c0 34.463796 4 39.463796 36.99414 39.458996z" filter="url(#b)" opacity=".1" transform="matrix(.26457031 0 0 .26457031 7.937109 1.150757)"/><path d="m56.970086 20.416739-16.930949-16.9309512v6.0846012.2645703.1421034c0 9.3378203.95934 10.4854423 10.316692 10.4396763z" fill="url(#a)"/></svg>

<?xml version="1.0" encoding="UTF-8" standalone="no"?>
<svg
   xmlns:dc="http://purl.org/dc/elements/1.1/"
   xmlns:cc="http://creativecommons.org/ns#"
   xmlns:rdf="http://www.w3.org/1999/02/22-rdf-syntax-ns#"
   xmlns:svg="http://www.w3.org/2000/svg"
   xmlns="http://www.w3.org/2000/svg"
   xmlns:xlink="http://www.w3.org/1999/xlink"
   xmlns:sodipodi="http://sodipodi.sourceforge.net/DTD/sodipodi-0.dtd"
   xmlns:inkscape="http://www.inkscape.org/namespaces/inkscape"
   height="256"
   viewBox="0 0 67.73 67.73"
   width="256"
   version="1.1"
   id="svg39"
   sodipodi:docname="application-msaccess.svg"
   inkscape:version="0.92.5 (2060ec1f9f, 2020-04-08)">
  <metadata
     id="metadata45">
    <rdf:RDF>
      <cc:Work
         rdf:about="">
        <dc:format>image/svg+xml</dc:format>
        <dc:type
           rdf:resource="http://purl.org/dc/dcmitype/StillImage" />
      </cc:Work>
    </rdf:RDF>
  </metadata>
  <defs
     id="defs43">
    <linearGradient
       gradientTransform="matrix(0.26457031,0,0,0.26457031,-6.5260144,-8.1554446)"
       inkscape:collect="always"
       xlink:href="#linearGradient22884"
       id="linearGradient12719-7"
       x1="208"
       y1="76"
       x2="182.59512"
       y2="101.92042"
       gradientUnits="userSpaceOnUse" />
    <linearGradient
       id="linearGradient22884"
       inkscape:collect="always">
      <stop
         id="stop22880"
         offset="0"
         style="stop-color:#dd5d61;stop-opacity:1" />
      <stop
         id="stop22882"
         offset="1"
         style="stop-color:#e16f72;stop-opacity:1" />
    </linearGradient>
    <filter
       inkscape:collect="always"
       style="color-interpolation-filters:sRGB"
       id="filter8603"
       x="-0.035999998"
       width="1.072"
       y="-0.035999998"
       height="1.072">
      <feGaussianBlur
         inkscape:collect="always"
         stdDeviation="0.99"
         id="feGaussianBlur8605" />
    </filter>
    <radialGradient
       inkscape:collect="always"
       xlink:href="#linearGradient1750"
       id="radialGradient1752"
       cx="179.99261"
       cy="103.2822"
       fx="179.99261"
       fy="103.2822"
       r="35.068905"
       gradientTransform="matrix(1.3687341,-2.0954866e-7,2.0316901e-7,1.3528551,-121.02851,-70.900578)"
       gradientUnits="userSpaceOnUse" />
    <linearGradient
       inkscape:collect="always"
       id="linearGradient1750">
      <stop
         style="stop-color:#000000;stop-opacity:1;"
         offset="0"
         id="stop1746" />
      <stop
         style="stop-color:#000000;stop-opacity:0;"
         offset="1"
         id="stop1748" />
    </linearGradient>
    <filter
       inkscape:collect="always"
       style="color-interpolation-filters:sRGB"
       id="filter2553"
       x="-0.071999997"
       width="1.1440001"
       y="-0.071999997"
       height="1.1440001">
      <feGaussianBlur
         inkscape:collect="always"
         stdDeviation="1.98"
         id="feGaussianBlur2555" />
    </filter>
    <linearGradient
       gradientUnits="userSpaceOnUse"
       y2="386.30795"
       x2="-2.2068965"
       y1="169.68051"
       x1="494.34482"
       id="linearGradient4226"
       xlink:href="#linearGradient4338-3-6"
       inkscape:collect="always"
       gradientTransform="matrix(0,-0.11988342,0.11987999,0,0.362762,62.749399)" />
    <linearGradient
       inkscape:collect="always"
       id="linearGradient4338-3-6">
      <stop
         style="stop-color:#b52428;stop-opacity:1"
         offset="0"
         id="stop4340-0-7" />
      <stop
         style="stop-color:#d32429;stop-opacity:1"
         offset="1"
         id="stop4342-7-5" />
    </linearGradient>
    <linearGradient
       inkscape:collect="always"
       xlink:href="#linearGradient4360"
       id="linearGradient4358"
       x1="88"
       y1="88"
       x2="488"
       y2="488"
       gradientUnits="userSpaceOnUse" />
    <linearGradient
       id="linearGradient4360"
       inkscape:collect="always">
      <stop
         id="stop4362"
         offset="0"
         style="stop-color:#000000;stop-opacity:0.58823532" />
      <stop
         style="stop-color:#000000;stop-opacity:0"
         offset="0.88"
         id="stop4364" />
      <stop
         id="stop4366"
         offset="1"
         style="stop-color:#000000;stop-opacity:1" />
    </linearGradient>
    <filter
       inkscape:collect="always"
       style="color-interpolation-filters:sRGB"
       id="filter4380"
       x="-0.052999184"
       width="1.1059984"
       y="-0.043862626"
       height="1.0877253">
      <feGaussianBlur
         inkscape:collect="always"
         stdDeviation="8.4801079"
         id="feGaussianBlur4382" />
    </filter>
    <filter
       inkscape:collect="always"
       style="color-interpolation-filters:sRGB"
       id="filter4346"
       x="-0.013249796"
       width="1.0264996"
       y="-0.010965657"
       height="1.0219313">
      <feGaussianBlur
         inkscape:collect="always"
         stdDeviation="2.120027"
         id="feGaussianBlur4348" />
    </filter>
  </defs>
  <sodipodi:namedview
     pagecolor="#ffffff"
     bordercolor="#666666"
     borderopacity="1"
     objecttolerance="10"
     gridtolerance="10"
     guidetolerance="10"
     inkscape:pageopacity="0"
     inkscape:pageshadow="2"
     inkscape:window-width="1920"
     inkscape:window-height="1024"
     id="namedview41"
     showgrid="false"
     inkscape:zoom="0.921875"
     inkscape:cx="128"
     inkscape:cy="128"
     inkscape:window-x="0"
     inkscape:window-y="28"
     inkscape:window-maximized="1"
     inkscape:current-layer="svg39" />
  <linearGradient
     id="a"
     gradientTransform="matrix(0 -.11988932 -.11988589 0 67.016455 292.81288)"
     gradientUnits="userSpaceOnUse"
     x1="529.655"
     x2="-35.31"
     y1="401.584"
     y2="119.093">
    <stop
       offset="0"
       stop-color="#b52428"
       id="stop2" />
    <stop
       offset="1"
       stop-color="#d32429"
       id="stop4" />
  </linearGradient>
  <linearGradient
     id="b"
     gradientUnits="userSpaceOnUse"
     x1="88"
     x2="488"
     y1="88"
     y2="488">
    <stop
       offset="0"
       stop-opacity=".588235"
       id="stop7" />
    <stop
       offset=".88"
       stop-opacity="0"
       id="stop9" />
    <stop
       offset="1"
       id="stop11" />
  </linearGradient>
  <filter
     id="c"
     color-interpolation-filters="sRGB"
     height="1.022"
     width="1.026"
     x="-.01"
     y="-.01">
    <feGaussianBlur
       stdDeviation="2.12"
       id="feGaussianBlur14" />
  </filter>
  <path
     style="color:#000000;display:inline;overflow:visible;visibility:visible;opacity:0.1;fill:#000000;fill-opacity:1;fill-rule:nonzero;stroke:none;stroke-width:2;marker:none;filter:url(#filter4346);enable-background:accumulate"
     d="M 189.84323,74 C 119.24979,74 111.65402,81.250835 112,151.98706 V 298 444.01294 C 111.65402,514.74917 119.24979,522 189.84323,522 H 386.15677 C 456.75021,522 462.16345,514.72616 464,444.01294 V 298 200 L 336,74 Z"
     id="rect4158-9"
     inkscape:connector-curvature="0"
     sodipodi:nodetypes="scccssscccs"
     transform="matrix(0.13228516,0,0,0.13228516,-4.4094514,-6.0388816)" />
  <path
     sodipodi:nodetypes="scccssscccs"
     inkscape:connector-curvature="0"
     id="path4350"
     d="M 189.84323,74 C 119.24979,74 111.65402,81.250835 112,151.98706 V 298 444.01294 C 111.65402,514.74917 119.24979,522 189.84323,522 H 386.15677 C 456.75021,522 464,514.75001 464,444.01294 V 298 202 L 336,74 Z"
     style="color:#000000;display:inline;overflow:visible;visibility:visible;opacity:0.3;fill:url(#linearGradient4358);fill-opacity:1;fill-rule:nonzero;stroke:none;stroke-width:2;marker:none;filter:url(#filter4380);enable-background:accumulate"
     transform="matrix(0.13228516,0,0,0.13228516,-4.4094514,-6.0388816)" />
  <path
     style="color:#000000;display:inline;overflow:visible;visibility:visible;fill:url(#linearGradient4226);fill-opacity:1;fill-rule:nonzero;stroke:none;stroke-width:0.26457033;marker:none;enable-background:accumulate"
     d="m 20.703991,3.4856502 c -9.338465,0 -10.343273,0.9591779 -10.297505,10.3165308 v 19.315344 19.315344 c -0.04577,9.357355 0.95904,10.316531 10.297505,10.316531 h 25.969365 c 9.338465,0 10.297506,-0.959068 10.297506,-10.316531 V 33.117525 20.418149 L 40.038362,3.4856502 Z"
     id="rect4158"
     inkscape:connector-curvature="0"
     sodipodi:nodetypes="scccssscccs" />
  <path
     style="color:#000000;display:inline;overflow:visible;visibility:visible;opacity:0.4;fill:#ffffff;fill-opacity:1;fill-rule:nonzero;stroke:none;stroke-width:0.26457033;marker:none;enable-background:accumulate"
     d="m 20.70406,3.4856502 c -9.338466,0 -10.343342,0.9593396 -10.297574,10.3166918 v 0.529141 C 10.360718,4.9741304 11.365594,4.0147908 20.70406,4.0147908 H 40.038362 V 3.4856502 Z"
     id="path931"
     inkscape:connector-curvature="0"
     sodipodi:nodetypes="sccsccs" />
  <path
     inkscape:connector-curvature="0"
     style="display:inline;fill:#ffffff;stroke-width:0.3527604;enable-background:new"
     d="m 34.358298,24.651362 c -5.160602,0.919008 -10.323996,2.138312 -15.484599,3.040492 0,7.85031 -0.0034,15.703931 0,23.557608 5.133672,0.898812 10.27008,2.097934 15.393653,3.033775 h 1.537816 V 24.651362 Z m 6.085634,4.100324 c -1.199599,0.01177 -2.399174,0.111159 -3.580483,0.27387 v 4.38143 c 3.319476,0.500919 6.780241,0.398901 9.979777,-0.680546 0.6773,-0.296319 1.534164,-0.666792 1.675268,-1.488724 -0.190491,-1.005367 -1.318936,-1.383015 -2.162035,-1.69697 -1.913724,-0.584261 -3.913196,-0.808696 -5.912527,-0.78906 z m 8.071463,4.189717 c -1.255827,1.008894 -2.875273,1.344176 -4.42742,1.573471 -2.395242,0.313947 -4.829284,0.317334 -7.224526,0.01394 v 4.57159 c 2.991409,0.384508 6.063793,0.367327 9.009341,-0.327612 0.903069,-0.257515 1.905232,-0.526001 2.536672,-1.277378 0.225765,-1.502762 0.02833,-3.037153 0.105933,-4.554022 z m -20.322826,1.029861 c 1.181746,3.950919 2.303815,7.923317 3.471454,11.87776 -0.814877,-0.05291 -1.630153,-0.112979 -2.437976,-0.187059 -0.215183,-0.881903 -0.444105,-1.763713 -0.676927,-2.642087 -1.082974,-0.0035 -2.166191,-0.03906 -3.245637,-0.09198 -0.20813,0.836042 -0.419889,1.668499 -0.635072,2.501014 -0.69141,-0.05291 -1.379073,-0.101928 -2.066956,-0.147786 1.03006,-3.714567 2.102231,-7.414956 3.125237,-11.129523 0.821933,-0.05997 1.640418,-0.116845 2.465877,-0.180342 z m -1.326468,2.113462 c -0.236349,1.675611 -0.765553,3.287556 -1.121839,4.938475 0.776072,0.007 1.55244,0.01042 2.332042,0.01394 -0.402147,-1.650918 -0.892721,-3.280341 -1.210203,-4.952425 z m 21.649294,2.501017 c -1.248771,1.005368 -2.857616,1.340557 -4.406233,1.569852 -2.402298,0.317495 -4.843415,0.324475 -7.245713,0.01757 v 4.575206 c 2.998463,0.380981 6.08154,0.36353 9.034145,-0.338465 0.899539,-0.257514 1.901255,-0.525569 2.518588,-1.280478 0.208126,-1.502756 0.02866,-3.030343 0.09921,-4.543685 z m 0,5.643822 c -1.255827,1.005367 -2.86804,1.344084 -4.420186,1.569852 -2.398769,0.317495 -4.832988,0.324474 -7.23176,0.01757 0,1.520398 0.01074,3.037238 -0.01394,4.557636 2.51871,0.363342 5.090182,0.356606 7.605362,-0.0279 1.372239,-0.27868 2.95629,-0.479732 3.954601,-1.566235 0.222242,-1.50276 0.03186,-3.037577 0.105934,-4.550919 z"
     id="path6" />
  <path
     style="color:#000000;display:inline;overflow:visible;visibility:visible;opacity:0.075;fill:#ffffff;fill-opacity:1;fill-rule:nonzero;stroke:none;stroke-width:0.26457033;marker:none;enable-background:accumulate"
     d="M 33.688674,3.4856502 V 62.7494 h 12.984614 c 9.338464,0 10.054627,-0.962123 10.297574,-10.316435 V 33.117525 20.418149 L 40.038362,3.4856502 Z"
     id="path4231"
     inkscape:connector-curvature="0"
     sodipodi:nodetypes="ccsscccc" />
  <path
     inkscape:connector-curvature="0"
     style="color:#000000;display:inline;overflow:visible;visibility:visible;opacity:0.075;fill:#ffffff;fill-opacity:1;fill-rule:nonzero;stroke:none;stroke-width:0.26457033;marker:none;enable-background:accumulate"
     d="m 10.406486,33.117525 v 19.31544 C 10.360716,61.790319 11.365594,62.7494 20.70406,62.7494 h 25.969228 c 9.338464,0 10.054627,-0.962123 10.297574,-10.316435 v -19.31544 z"
     id="path4255"
     sodipodi:nodetypes="ccssscc" />
  <path
     style="color:#000000;display:inline;overflow:visible;visibility:visible;opacity:0.075;fill:#ffffff;fill-opacity:1;fill-rule:nonzero;stroke:none;stroke-width:2.11656237;stroke-linecap:butt;stroke-linejoin:miter;stroke-miterlimit:4;stroke-dasharray:none;stroke-dashoffset:0;stroke-opacity:1;marker:none;enable-background:accumulate"
     d="M 41.096643,62.7494 56.970862,46.875181 v 5.948567 C 56.957022,61.81803 55.964785,62.7494 46.871128,62.7494 Z"
     id="path4254"
     inkscape:connector-curvature="0"
     sodipodi:nodetypes="cccsc" />
  <path
     inkscape:connector-curvature="0"
     style="color:#000000;display:inline;overflow:visible;visibility:visible;opacity:0.1;fill:url(#radialGradient1752);fill-opacity:1;fill-rule:nonzero;stroke:none;stroke-width:1;marker:none;filter:url(#filter2553);enable-background:accumulate"
     d="m 185.33354,74.825228 -64,-65.9999998 0.003,24.9985698 v 1 0.53711 c 0,35.29429 1.62603,39.63197 36.99414,39.45899 z"
     id="rect4158-0-3-6"
     sodipodi:nodetypes="ccccscc"
     transform="matrix(0.26457031,0,0,0.26457031,7.9371089,1.1507568)" />
  <path
     inkscape:connector-curvature="0"
     style="color:#000000;display:inline;overflow:visible;visibility:visible;opacity:0.1;fill:#000000;fill-opacity:1;fill-rule:nonzero;stroke:none;stroke-width:1;marker:none;filter:url(#filter8603);enable-background:accumulate"
     d="m 185.33354,74.825228 v -2 l -64,-63.9999998 v 0 24.9990938 1 0.53711 c 0,34.463796 4,39.463796 36.99414,39.458996 z"
     id="rect4158-0-3-2"
     sodipodi:nodetypes="ccccccscc"
     transform="matrix(0.26457031,0,0,0.26457031,7.9371089,1.1507568)" />
  <path
     inkscape:connector-curvature="0"
     style="color:#000000;display:inline;overflow:visible;visibility:visible;fill:url(#linearGradient12719-7);fill-opacity:1;fill-rule:nonzero;stroke:none;stroke-width:0.26457033;marker:none;enable-background:accumulate"
     d="M 56.970086,20.416739 40.039137,3.4857878 V 9.570389 9.8349593 9.9770627 c 0,9.3378203 0.95934,10.4854423 10.316692,10.4396763 z"
     id="rect4158-0-3-27" />
</svg>
